svgs/sharp-regular/bolt-lightning.svg

<svg xmlns="http://www.w3.org/2000/svg" viewBox="0 0 384 512"><!--! Font Awesome Pro 6.6.0 by @fontawesome - https://fontawesome.com License - https://fontawesome.com/license (Commercial License) Copyright 2024 Fonticons, Inc. --><path d="M234.7 96l10.7-48L256 0 206.8 0 32 0 5.3 240 0 288l48.3 0 78.6 0 49.1 0-10.3 48-16.3 76L128 512l65.8-78.2L384 208l0-16 0-48-48 0-62.8 0L224 144l10.7-48zm100.1 96L215.3 333.9l7.7-35.8L235.4 240 176 240 53.6 240 75 48l121.2 0-19 85.6-13 58.4 59.8 0 110.7 0z"/></svg>

<svg xmlns="http://www.w3.org/2000/svg" viewBox="0 0 384 512"><!--! Font Awesome Pro 6.4.0 by @fontawesome - https://fontawesome.com License - https://fontawesome.com/license (Commercial License) Copyright 2023 Fonticons, Inc. --><path d="M234.7 96l10.7-48L256 0H206.8 32L5.3 240 0 288H48.3h78.6H176l-10.3 48-16.3 76L128 512l65.8-78.2L384 208V192 144H336 273.2 224l10.7-48zm100.1 96L215.3 333.9l7.7-35.8L235.4 240H176 53.6L75 48H196.2l-19 85.6-13 58.4H224 334.7z"/></svg>
